X: 0
T: Lady Mary Ramsay
C: Nathaniel Gow
R: strathspey
M: 4/4
L: 1/8
K: D
F \
| "D"D2 "G"D>B "D"A<F "Bm"F>B | "D"A>F "G"B>G "D"A>F F<d \
| "D"D2 "G"D>B "D"A<F F>A "G"B>d "D"A>F "A7"E2 E:|
|| g \
| "D"f<d d>f "A7"e<c c>e | "G"d<B B>d "D"A<F Fg \
| "D"f<d d>f "A7"e<c "D"c>A | "G"B<d "D"A>F "A7"E2E ||
|| g \
| "D"f<d d>f "A7"e<c c>e | "D"d<B "G"B>d "D"A<F F>A \
| "D"d<f "A7"c>e "Bm"B<d "D"A>F| "D"G<B "D"A>F "A7"E3 |]